X: 1
T: Last Minute Reel
T: 8 x 32R 3C (NY Branch Millenium Book)
P: Prince Charlie's Welcome to the Isle of Skye
C: song based on Planxty George Brabazon by O'Carolan
C: arr. T. Traub 2-24-2004
M: C
L: 1/8
K:D
|: dB|"D"A2 D2 GFED|A2 D2 GFED|"Em"B2 E2 EFGA|"G"BAGF "A"E2 FG|"D"A2 GF "G"d2 cB|"D"BAGF GFED|"G"FEDB, "A"A,B,DE|"D"F2 D2 D2 :|
|: de|"D"f2 df "A"e2 ce|"D"d2 Ad BAGF|"Em"B2 E2 EFGA|"G"BAGF "A"E2 de|"D"f2 df "A"e2 ce|"D"d2 Ad BAGF|"G"GFED "A"A,B,DE|"D"F2 D2 D2 :|
